svg/furkot/icomoon/info.svg

<svg viewBox="0 0 512 512" xmlns="http://www.w3.org/2000/svg"><path d="m224 152c0-13.2 10.8-24 24-24h16c13.2 0 24 10.8 24 24v16c0 13.2-10.8 24-24 24h-16c-13.2 0-24-10.8-24-24zm96 232h-128v-32h32v-96h-32v-32h96v128h32z"/><path d="m256 0c-141.384 0-256 114.616-256 256s114.616 256 256 256 256-114.616 256-256-114.616-256-256-256zm0 464c-114.872 0-208-93.128-208-208s93.128-208 208-208 208 93.128 208 208-93.128 208-208 208z"/></svg>

<svg xmlns="http://www.w3.org/2000/svg" viewBox="0 0 512 512"><path d="M224 152C224 138.8 234.8 128 248 128H264C277.2 128 288 138.8 288 152V168C288 181.2 277.2 192 264 192H248C234.8 192 224 181.2 224 168V152ZM320 384H192V352H224V256H192V224H288V352H320Z"/><path d="M256 0C114.616 0 0 114.616 0 256S114.616 512 256 512 512 397.384 512 256 397.384 0 256 0ZM256 464C141.128 464 48 370.872 48 256S141.128 48 256 48 464 141.128 464 256 370.872 464 256 464Z"/></svg>
